AWP-Looks-v1/BW - 02.lrtemplate
s = {
	id = "BF8C92F1-502C-484D-BF83-A092806DAAEB",
	internalName = "FINCK / BW / 04",
	title = "BW / 02",
	type = "Develop",
	value = {
		settings = {
			AutoLateralCA = 0,
			Blacks2012 = 37,
			BlueHue = 0,
			BlueSaturation = 0,
			CameraProfile = "Adobe Standard",
			ChromaticAberrationB = 0,
			ChromaticAberrationR = 0,
			Clarity2012 = 54,
			ColorNoiseReduction = 25,
			ColorNoiseReductionDetail = 50,
			ColorNoiseReductionSmoothness = 50,
			Contrast2012 = -48,
			ConvertToGrayscale = true,
			CropConstrainToWarp = 0,
			Defringe = 0,
			DefringeGreenAmount = 0,
			DefringeGreenHueHi = 60,
			DefringeGreenHueLo = 40,
			DefringePurpleAmount = 0,
			DefringePurpleHueHi = 70,
			DefringePurpleHueLo = 30,
			EnableCalibration = true,
			EnableDetail = true,
			EnableEffects = true,
			EnableGrayscaleMix = true,
			EnableLensCorrections = true,
			EnableSplitToning = true,
			Exposure2012 = 0,
			GrainAmount = 13,
			GrainFrequency = 50,
			GrainSize = 6,
			GrayMixerAqua = -37,
			GrayMixerBlue = 32,
			GrayMixerGreen = -15,
			GrayMixerMagenta = -15,
			GrayMixerOrange = 13,
			GrayMixerPurple = 0,
			GrayMixerRed = 22,
			GrayMixerYellow = 0,
			GreenHue = 0,
			GreenSaturation = 0,
			Highlights2012 = -14,
			LensManualDistortionAmount = 0,
			LensProfileEnable = 0,
			LensProfileSetup = "LensDefaults",
			LuminanceNoiseReductionContrast = 0,
			LuminanceNoiseReductionDetail = 50,
			LuminanceSmoothing = 0,
			ParametricDarks = 0,
			ParametricHighlightSplit = 75,
			ParametricHighlights = 0,
			ParametricLights = 0,
			ParametricMidtoneSplit = 50,
			ParametricShadowSplit = 25,
			ParametricShadows = 0,
			PerspectiveAspect = 0,
			PerspectiveHorizontal = 0,
			PerspectiveRotate = 0,
			PerspectiveScale = 100,
			PerspectiveVertical = 0,
			PostCropVignetteAmount = 0,
			PostCropVignetteFeather = 50,
			PostCropVignetteHighlightContrast = 0,
			PostCropVignetteMidpoint = 50,
			PostCropVignetteRoundness = 0,
			PostCropVignetteStyle = 1,
			ProcessVersion = "6.7",
			RedHue = 0,
			RedSaturation = -30,
			ShadowTint = 25,
			Shadows2012 = 12,
			SharpenDetail = 40,
			SharpenEdgeMasking = 0,
			SharpenRadius = 0.8,
			Sharpness = 102,
			SplitToningBalance = 0,
			SplitToningHighlightHue = 201,
			SplitToningHighlightSaturation = 0,
			SplitToningShadowHue = 52,
			SplitToningShadowSaturation = 0,
			ToneCurveName2012 = "Custom",
			ToneCurvePV2012 = {
				0,
				0,
				14,
				25,
				55,
				54,
				193,
				182,
				218,
				218,
				255,
				255,
			},
			ToneCurvePV2012Blue = {
				0,
				0,
				255,
				255,
			},
			ToneCurvePV2012Green = {
				0,
				0,
				255,
				255,
			},
			ToneCurvePV2012Red = {
				0,
				0,
				255,
				255,
			},
			VignetteAmount = -5,
			VignetteMidpoint = 21,
			WhiteBalance = "Auto",
			Whites2012 = -32,
			orientation = "AB",
		},
		uuid = "668547D1-A051-4581-80FB-4046BD8223D3",
	},
	version = 0,
}
